src/images/svg/be-square/backend.svg

<svg width="48" height="48" viewBox="0 0 48 48" fill="none" xmlns="http://www.w3.org/2000/svg">
<path fill-rule="evenodd" clip-rule="evenodd" d="M8.91138 9.86977C8.91138 8.94966 9.6601 8.20094 10.5802 8.20094C11.5003 8.20094 12.2487 8.94939 12.2487 9.86949C12.2487 10.7896 11.5003 11.5383 10.5802 11.5383C9.6601 11.5383 8.91138 10.7899 8.91138 9.86977ZM9.9765 9.86949C9.9765 10.2024 10.2473 10.4732 10.5802 10.4732C10.9128 10.4732 11.1836 10.2024 11.1836 9.86949C11.1836 9.53688 10.9128 9.26607 10.5802 9.26607C10.2473 9.26607 9.9765 9.53688 9.9765 9.86949Z" fill="#FF444F"/>
<path fill-rule="evenodd" clip-rule="evenodd" d="M13.385 9.86977C13.385 8.94966 14.1337 8.20094 15.0538 8.20094C15.9739 8.20094 16.7224 8.94966 16.7224 9.86977C16.7224 10.7899 15.9739 11.5383 15.0538 11.5383C14.1337 11.5383 13.385 10.7899 13.385 9.86977ZM14.4501 9.86949C14.4501 10.2024 14.7209 10.4732 15.0538 10.4732C15.3864 10.4732 15.6573 10.2024 15.6573 9.86949C15.6573 9.53688 15.3864 9.26607 15.0538 9.26607C14.7209 9.26607 14.4501 9.53688 14.4501 9.86949Z" fill="#FF444F"/>
<path fill-rule="evenodd" clip-rule="evenodd" d="M19.5272 8.20094C18.6071 8.20094 17.8586 8.94966 17.8586 9.86977C17.8586 10.7899 18.6071 11.5383 19.5272 11.5383C20.4473 11.5383 21.1957 10.7899 21.1957 9.86977C21.1957 8.94966 20.4473 8.20094 19.5272 8.20094ZM19.5272 10.4732C19.1943 10.4732 18.9238 10.2024 18.9238 9.86949C18.9238 9.53688 19.1943 9.26607 19.5272 9.26607C19.8601 9.26607 20.1309 9.53688 20.1309 9.86949C20.1309 10.2024 19.8598 10.4732 19.5272 10.4732Z" fill="#FF444F"/>
<path fill-rule="evenodd" clip-rule="evenodd" d="M7.95255 6H40.0475C41.1241 6 42 6.87589 42 7.95255V15.8001C42 16.094 41.7616 16.3324 41.4674 16.3324C41.1733 16.3324 40.9349 16.094 40.9349 15.8001V13.7396H7.06512V31.4556C7.06512 31.945 7.4631 32.343 7.95255 32.343H12.4468L15.5856 29.2042V26.1377L13.5405 24.0926C13.4405 23.9926 13.3845 23.8572 13.3845 23.716V19.3489C13.3845 19.2067 13.4413 19.0702 13.5427 18.9702L16.3829 16.1654C16.5359 16.0146 16.7644 15.9701 16.9624 16.053C17.1607 16.1357 17.2898 16.3293 17.2898 16.5444V18.4939C17.2898 18.7881 17.0514 19.0265 16.7573 19.0265C16.4631 19.0265 16.2247 18.7881 16.2247 18.4939V17.8185L14.4496 19.5714V23.4952L16.4947 25.5403C16.5947 25.6403 16.6507 25.7757 16.6507 25.9171V29.1891L19.0608 31.5992C19.4544 31.4078 19.8593 31.2397 20.2721 31.0972V27.4791C20.2721 27.2215 20.455 27.0067 20.6981 26.9572V25.9171C20.6981 25.7757 20.7541 25.6403 20.8541 25.5403L22.8992 23.4952V19.5714L21.1241 17.8185V21.5855C21.1241 21.7687 21.0301 21.9387 20.8752 22.0362L18.9581 23.2433C18.7848 23.3526 18.564 23.3526 18.3907 23.2433L16.4735 22.0362C16.3186 21.9387 16.2247 21.7687 16.2247 21.5855V20.9881C16.2247 20.6939 16.4631 20.4555 16.7573 20.4555C17.0514 20.4555 17.2898 20.6939 17.2898 20.9881V21.2916L18.6744 22.1634L20.0589 21.2916V16.5441C20.0589 16.3293 20.188 16.1357 20.3863 16.0528C20.5844 15.9701 20.8129 16.0143 20.9659 16.1654L23.8058 18.9702C23.9072 19.0702 23.9643 19.2067 23.9643 19.3489V23.716C23.9643 23.8572 23.9083 23.9926 23.8083 24.0926L21.7632 26.1377V26.9465H25.9525V25.562C25.9525 25.2678 26.1909 25.0294 26.4851 25.0294H27.4437V21.7478L26.6919 21.054C26.5409 20.9145 26.4835 20.7008 26.5444 20.5047L27.8224 16.3865C27.8916 16.1637 28.0979 16.0118 28.3311 16.0118H29.7513C29.9845 16.0118 30.1908 16.1637 30.26 16.3865L31.538 20.5047C31.599 20.7008 31.5416 20.9145 31.3905 21.054L30.639 21.7478V25.0294H31.5976C31.8915 25.0294 32.1302 25.2678 32.1302 25.562V29.2042L35.269 32.343H40.0472C40.5366 32.343 40.9349 31.945 40.9349 31.4556V18.2811C40.9349 17.9869 41.1733 17.7485 41.4674 17.7485C41.7613 17.7485 41.9997 17.9869 41.9997 18.2811V31.4556C41.9997 32.5323 41.1238 33.4081 40.0472 33.4081H36.3278C36.4909 33.6172 36.4766 33.9196 36.2846 34.1118L33.7256 36.6705C33.9174 37.0638 34.0852 37.469 34.228 37.8815H37.8461C38.1402 37.8815 38.3786 38.1199 38.3786 38.4141V41.4674C38.3786 41.7616 38.1402 42 37.8461 42H27.3371C27.0429 42 26.8045 41.7616 26.8045 41.4674C26.8045 39.8426 25.4826 38.5206 23.858 38.5206C22.2331 38.5206 20.9112 39.8426 20.9112 41.4674C20.9112 41.7616 20.6728 42 20.3786 42H9.86966C9.57578 42 9.33737 41.7616 9.33737 41.4674V38.4141C9.33737 38.1199 9.57578 37.8815 9.86966 37.8815H13.4877C13.6306 37.469 13.7984 37.0638 13.9901 36.6705L11.4314 34.1118C11.2391 33.9196 11.2248 33.6172 11.388 33.4081H7.95255C6.87589 33.4081 6 32.5323 6 31.4556V7.95255C6 6.87589 6.87589 6 7.95255 6ZM27.6615 20.4995L28.3374 21.1235C28.4467 21.2243 28.5088 21.366 28.5091 21.5149V25.0297H29.5739V21.5149C29.5739 21.366 29.6363 21.2243 29.7453 21.1235L30.4212 20.4995L29.3591 17.077H28.7238L27.6615 20.4995ZM31.065 29.1894V26.0948H27.0177V26.9575C27.2607 27.007 27.4437 27.2217 27.4437 27.4794V31.0972C27.8565 31.24 28.2613 31.4081 28.6549 31.5995L31.065 29.1894ZM20.9604 31.9931C20.3569 32.1774 19.7675 32.4218 19.2086 32.7196C19.0018 32.8297 18.7472 32.7918 18.5815 32.6262L16.1258 30.1705L13.0444 33.2521C13.0444 33.2519 13.0442 33.2521 13.0444 33.2521L12.561 33.7353L15.0168 36.191C15.1824 36.3566 15.2203 36.6112 15.1101 36.818C14.8124 37.3767 14.568 37.9661 14.3837 38.5698C14.3153 38.7936 14.1085 38.9466 13.8742 38.9466H10.4022V40.9349H15.8174C15.9531 38.909 16.8572 36.9839 18.3464 35.5876C18.5609 35.3865 18.8979 35.3975 19.099 35.6117C19.3003 35.8265 19.2893 36.1635 19.0748 36.3646C17.7795 37.5794 17.013 39.1861 16.8836 40.9349H19.8815C20.1427 38.9738 21.8264 37.4558 23.858 37.4558C25.8896 37.4558 27.5733 38.9738 27.8345 40.9349H30.8318C30.5591 37.3261 27.5354 34.4735 23.858 34.4735C22.8679 34.4735 21.9115 34.676 21.015 35.0753C20.7467 35.1948 20.4314 35.0742 20.3119 34.8056C20.1921 34.5367 20.313 34.222 20.5816 34.1022C21.6154 33.6419 22.7176 33.4084 23.858 33.4084C28.1229 33.4084 31.624 36.7384 31.8992 40.9349H37.3135V38.9466H33.8416C33.6075 38.9466 33.4007 38.7936 33.3323 38.5698C33.148 37.9661 32.9036 37.3767 32.6059 36.818C32.4957 36.6112 32.5336 36.3566 32.6992 36.191L35.155 33.7353L34.6721 33.2527L31.5902 30.1705L29.1345 32.6262C28.9686 32.7918 28.7142 32.8297 28.5074 32.7196C27.9485 32.4218 27.3591 32.1774 26.7556 31.9931C26.5318 31.9247 26.3785 31.7179 26.3785 31.4836V28.0117H21.3372V31.4836C21.3372 31.7179 21.1842 31.9247 20.9604 31.9931ZM7.06512 7.95255V12.6745H40.9349V7.95255C40.9349 7.46338 40.5369 7.06512 40.0475 7.06512H7.95255C7.46338 7.06512 7.06512 7.4631 7.06512 7.95255Z" fill="#FF444F"/>
</svg>

<svg xmlns="http://www.w3.org/2000/svg" width="48" height="48" fill="#ff444f"  fill-rule="evenodd" xmlns:v="https://vecta.io/nano"><path d="M8.911 9.87a1.67 1.67 0 0 1 1.669-1.669 1.67 1.67 0 0 1 1.668 1.669 1.67 1.67 0 0 1-1.668 1.669A1.67 1.67 0 0 1 8.911 9.87zm1.065 0c0 .333.271.604.604.604s.603-.271.603-.604-.271-.603-.603-.603-.604.271-.604.603zm3.409 0a1.67 1.67 0 0 1 1.669-1.669 1.67 1.67 0 0 1 1.669 1.669 1.67 1.67 0 0 1-1.669 1.669 1.67 1.67 0 0 1-1.669-1.669zm1.065 0c0 .333.271.604.604.604s.603-.271.603-.604-.271-.603-.603-.603-.604.271-.604.603zm5.077-1.669a1.67 1.67 0 0 0-1.669 1.669 1.67 1.67 0 0 0 1.669 1.669 1.67 1.67 0 0 0 1.668-1.669 1.67 1.67 0 0 0-1.668-1.669zm0 2.272c-.333 0-.603-.271-.603-.604s.27-.603.603-.603.604.271.604.603-.271.604-.604.604zM7.953 6h32.095C41.124 6 42 6.876 42 7.953V15.8a.53.53 0 1 1-1.065 0v-2.06H7.065v17.716a.89.89 0 0 0 .887.887h4.494l3.139-3.139v-3.067l-2.045-2.045a.53.53 0 0 1-.156-.377v-4.367a.53.53 0 0 1 .158-.379l2.84-2.805a.53.53 0 0 1 .906.379v1.95c0 .294-.238.533-.532.533s-.533-.238-.533-.533v-.675l-1.775 1.753v3.924l2.045 2.045a.53.53 0 0 1 .156.377v3.272l2.41 2.41a10.92 10.92 0 0 1 1.211-.502v-3.618c0-.258.183-.472.426-.522v-1.04c0-.141.056-.277.156-.377l2.045-2.045v-3.924l-1.775-1.753v3.767a.53.53 0 0 1-.249.451l-1.917 1.207a.53.53 0 0 1-.567 0l-1.917-1.207a.53.53 0 0 1-.249-.451v-.597c0-.294.238-.533.533-.533a.53.53 0 0 1 .532.533v.303l1.385.872 1.385-.872v-4.747a.53.53 0 0 1 .907-.378l2.84 2.805a.53.53 0 0 1 .159.379v4.367a.53.53 0 0 1-.156.377l-2.045 2.045v.809h4.189v-1.384c0-.294.238-.533.533-.533h.959v-3.282l-.752-.694c-.151-.139-.208-.353-.148-.549l1.278-4.118c.069-.223.276-.375.509-.375h1.42c.233 0 .439.152.509.375l1.278 4.118a.53.53 0 0 1-.148.549l-.751.694v3.282h.959c.294 0 .533.238.533.533v3.642l3.139 3.139h4.778a.89.89 0 0 0 .888-.887V18.281c0-.294.238-.533.532-.533a.53.53 0 0 1 .532.533v13.175c0 1.077-.876 1.952-1.953 1.952h-3.719c.163.209.149.512-.043.704l-2.559 2.559a10.9 10.9 0 0 1 .502 1.211h3.618a.53.53 0 0 1 .532.533v3.053c0 .294-.238.533-.532.533H27.337c-.294 0-.533-.238-.533-.533a2.95 2.95 0 0 0-2.947-2.947 2.95 2.95 0 0 0-2.947 2.947c0 .294-.238.533-.533.533H9.87a.53.53 0 0 1-.532-.533v-3.053c0-.294.238-.533.532-.533h3.618a10.94 10.94 0 0 1 .502-1.211l-2.559-2.559a.53.53 0 0 1-.043-.704H7.953C6.876 33.408 6 32.532 6 31.456V7.953C6 6.876 6.876 6 7.953 6zm19.709 14.5l.676.624c.109.101.171.242.172.391v3.515h1.065v-3.515a.53.53 0 0 1 .171-.391l.676-.624-1.062-3.422h-.635L27.662 20.5zm3.404 8.69v-3.095h-4.047v.863c.243.05.426.264.426.522v3.618a10.98 10.98 0 0 1 1.211.502l2.41-2.41zM20.96 31.993a9.81 9.81 0 0 0-1.752.727c-.207.11-.461.072-.627-.093l-2.456-2.456-3.565 3.565 2.456 2.456a.53.53 0 0 1 .093.627 9.85 9.85 0 0 0-.726 1.752.53.53 0 0 1-.509.377h-3.472v1.988h5.415c.136-2.026 1.04-3.951 2.529-5.347.215-.201.552-.19.753.024s.19.552-.024.753a6.92 6.92 0 0 0-2.191 4.57h2.998a4.02 4.02 0 0 1 3.977-3.479 4.02 4.02 0 0 1 3.976 3.479h2.997c-.273-3.609-3.296-6.461-6.974-6.461a6.94 6.94 0 0 0-2.843.602.53.53 0 0 1-.703-.27c-.119-.269.001-.584.27-.703a8.01 8.01 0 0 1 3.276-.694 8.07 8.07 0 0 1 8.041 7.526h5.414v-1.988h-3.472a.53.53 0 0 1-.509-.377 9.85 9.85 0 0 0-.726-1.752c-.11-.207-.072-.461.093-.627l2.456-2.456-3.565-3.565-2.456 2.456a.53.53 0 0 1-.627.093c-.559-.298-1.148-.542-1.752-.727a.53.53 0 0 1-.377-.509v-3.472h-5.041v3.472a.53.53 0 0 1-.377.509zM7.065 7.953v4.722h33.87V7.953a.89.89 0 0 0-.887-.887H7.953a.89.89 0 0 0-.887.887z"/></svg>
